X:1
T: Lady McKenzie of Coul
C:
R:Reel
Q: 232
K:C
M:4/4
L:1/8
|:EF|G3A G2 c2|A2 F2 F2 d2|B2 G2 G2 B2|cd ef g4|
G3A G2 c2|A2 F2 F2 c2|Bc dB G2 B2|c6:|
|:f2|e2 g2 g4|a2 f2 d3f|e2 g2 c2 e2|
|1dc BA G3f|e2 g2 g4|a2 f2 d2 f2|e2 g2 Bc dB|c4 c2:|
|2dc BA G3G|c4 G3E|F2 A2 D2 f2|fe dc ed cB|c6||
